symbols/web/iron/materialsymbolsoutlined/iron_wght700gradN25fill1_40px.svg

<svg xmlns="http://www.w3.org/2000/svg" height="40" width="40"><path d="M2.208 31v-5.5q0-3.083 2.146-5.229t5.229-2.146h14.625v-1.75q0-.625-.458-1.063-.458-.437-1.083-.437H16q-.667 0-1.062.437-.396.438-.396 1.063h-4.25q0-2.375 1.666-4.042 1.667-1.666 4-1.666h6.709q2.375 0 4.062 1.666 1.688 1.667 1.688 4.042v6.25q.916 0 1.645-.563.73-.562.73-1.479V15.25q0-2.625 1.812-4.438Q34.417 9 37.042 9h.75v4.208h-.75q-.875 0-1.459.584Q35 14.375 35 15.25v5.333q0 2.625-1.938 4.438-1.937 1.812-4.645 1.812V31Z"/></svg>

<svg xmlns="http://www.w3.org/2000/svg" height="40" width="40"><path d="M2.208 31V25.5Q2.208 22.417 4.354 20.271Q6.5 18.125 9.583 18.125H24.208V16.375Q24.208 15.75 23.75 15.312Q23.292 14.875 22.667 14.875H16Q15.333 14.875 14.938 15.312Q14.542 15.75 14.542 16.375H10.292Q10.292 14 11.958 12.333Q13.625 10.667 15.958 10.667H22.667Q25.042 10.667 26.729 12.333Q28.417 14 28.417 16.375V22.625Q29.333 22.625 30.062 22.062Q30.792 21.5 30.792 20.583V15.25Q30.792 12.625 32.604 10.812Q34.417 9 37.042 9H37.792V13.208H37.042Q36.167 13.208 35.583 13.792Q35 14.375 35 15.25V20.583Q35 23.208 33.062 25.021Q31.125 26.833 28.417 26.833V31Z"/></svg>
